!!!COM: Claude (-Achille) Debussy
!!!OTL: [T179_Deb-w10p24m4-16]
**kern	**kern	**dynam	**kern	**text	**dynam
!!pagebreak:original
*clefG2	*clefG2	*	*clefG2	*	*
*k[f#c#g#d#]	*k[f#c#g#d#]	*	*k[f#c#g#d#]	*	*
*E:	*E:	*	*E:	*	*
*M3/4	*M3/4	*	*M3/4	*	*
=1	=1	=1	=1	=1	=1
!	!	!	!LO:TX:t=[quarter]=64	!	!
4c# 4d#	(8gnL	pp	4r	.	.
.	8bJ)	.	.	.	.
4ryy	.	.	8r	.	.
.	.	.	8b	Clo-	p
4c# 4d#	(8g	.	8b	-ches	.
.	8bJ)	.	8b	chré-	.
=2	=2	=2	=2	=2	=2
4ryy	.	.	4a	-tien-	.
.	.	.	.	.	.
4c# 4d#	(8f#	.	8a	-nes	.
.	8aJ)	.	8a	pour	.
4ryy	.	.	8a	les	.
.	.	.	8a	ma-	.
=3	=3	=3	=3	=3	=3
4c# 4d#	(8gn	.	2gn	-ti-	.
.	8bJ)	.	.	.	.
4ryy	.	.	.	.	.
.	.	.	.	.	.
4c# 4d#	(8g	.	4d#	-nes,	.
.	8bJ)	.	.	.	.
=4	=4	=4	=4	=4	=4
4ryy	.	.	4r	.	.
.	.	.	.	.	.
4c# 4d#	(8f#	.	4d#	son-	.
.	8aJ)	.	.	.	.
4ryy	.	.	8f#	-nant	.
.	.	.	8a	au	.
=5	=5	=5	=5	=5	=5
4c# 4d#	(8f#	.	4cc#	cœur	.
.	8aJ)	.	.	.	.
4ryy	.	< [	8a	d'es-	<
.	.	.	8a	-pér-	.
4c# 4d#	(8f#	.	8b	-er	.
.	8aJ)	.	8cc#	en-	[
*clefF4	*	*	*	*	*
=6	=6	=6	=6	=6	=6
4B	(8c#L	.	[2.dd#	-co-	> ]
.	8d#]	.	.	.	.
4Gn	8gn	.	.	.	.
.	8bJ)	.	.	.	.
!	!LO:TX:b:i:t=dim.	!	!	!	!
4D#	(8c#L	.	.	.	.
.	8d#	.	.	.	.
!!linebreak:original
=7	=7	=7	=7	=7	=7
4BB	8gn	.	4dd#]	-re!	.
.	8bJ)	.	.	.	.
4GGn	(8c#L	.	4r	.	.
.	8d#	.	.	.	.
4DD#	8g	.	4r	.	.
.	8bJ)	.	.	.	.
*clefG2	*	*	*	*	*
=8	=8	=8	=8	=8	=8
4ryy	.	.	4r	.	.
.	.	.	.	.	.
4c# 4d#	(8f#	.	4ff#	An-	.
.	8aJ)	.	.	.	.
4ryy	.	.	4dd#	-ge-	.
.	.	.	.	.	.
=9	=9	=9	=9	=9	=9
4c# 4d#	(8gn	.	8cc#	-lus	.
.	8bJ)	.	8a	an-	.
4ryy	.	.	8a	-ge-	.
.	.	.	8a	-li-	.
4c# 4d#	(8g	.	8b	-sés	.
.	8bJ)	.	8cc#	d'au-	.
=10	=10	=10	=10	=10	=10
4ryy	.	.	2b	-ro-	.
.	.	.	.	.	.
4c# 4e	(8gn	.	.	.	.
.	8bJ)	.	.	.	.
4ryy	.	.	4gn	-re!	.
.	.	.	.	.	.
=11	=11	=11	=11	=11	=11
4c# 4e	(8gn	.	4r	.	.
.	8bJ)	.	.	.	.
4ryy	.	< [	2dd#'~^	Las!	.
.	.	.	.	.	.
4c# 4d#	(8g	.	.	.	.
.	8bJ)	.	.	.	.
*clefF4	*	*	*	*	*
=12	=12	=12	=12	=12	=12
[2.GG#X [2.D#	(8BL	pp	8cc#	où	.
.	8d#]	.	8b	sont	.
.	8g#X	.	8a#X	vos	.
.	8bJ)	.	8g#	pri-	.
.	(8BL	.	8f#	-è-	.
.	8d#	.	[8e	-res	.
=13	=13	=13	=13	=13	=13
*	*^	*	*	*	*
!	!	!	!	!LO:TX:a:t=retenu	!	!
2GG#] 2D#]	8g#	2ryy	.	8e]	.	.
.	8bJ)	.	.	8f#	ca-	.
.	(8BL	.	.	4d#	-li-	.
.	8f#	.	.	.	.	.
4CC# 4GG# 4E	8g#	4c# 4e	.	4c#	-nes?	.
.	8cc#J)	.	.	.	.	.
*	*v	*v	*	*	*	*
=	=	=	=	=	=
*-	*-	*-	*-	*-	*-
!!!system-decoration: s1[({(s2,s3)})]
